lib/svgs/git-fork.svg

<?xml version="1.0" encoding="UTF-8" standalone="no"?>
<svg width="20px" height="20px" viewBox="0 0 20 20" version="1.1" xmlns="http://www.w3.org/2000/svg" xmlns:xlink="http://www.w3.org/1999/xlink">
    <defs></defs>
    <g id="Icons" stroke="none" stroke-width="1" fill="none" fill-rule="evenodd">
        <g id="Web" transform="translate(-97.000000, -1710.000000)" fill="#000000">
            <g id="git/git-fork" transform="translate(97.000000, 1710.000000)">
                <path d="M15.9080679,5.91420304 C15.6322718,4.94465107 14.7742915,4.28771314 13.8245361,4.28771314 C12.8440321,4.25648377 11.9860519,4.91326154 11.7102557,5.85174429 C11.4038678,6.82129626 11.7408474,7.85362729 12.5374873,8.41655679 C12.660168,8.51040506 12.7213515,8.57302396 12.6907597,8.72949114 C12.660168,9.01087581 12.660168,9.29242064 12.5682359,9.57396546 C12.2924398,10.5436776 11.5877319,11.1066071 10.6072279,11.1379966 C9.90252007,11.1379966 9.19765535,11.2316847 8.55428783,11.5132296 L8.30908339,11.6384674 L8.30908339,11.4820002 L8.30908339,6.41467379 C8.30908339,6.28959614 8.339832,6.22697724 8.43176405,6.16451849 C9.25899568,5.57019947 9.5959753,4.50663907 9.2895874,3.53708709 C8.95260778,2.56737497 8.06403583,1.94182657 7.05294009,2.00428532 C6.07243607,2.06690422 5.21445584,2.84891979 5.03059173,3.84986129 C5.03059173,3.91232004 5,3.94370957 5,3.97493894 L5,4.56925797 L5.09193206,4.91326154 C5.24504756,5.44512182 5.55143546,5.85174429 5.98050401,6.16451849 C6.07243607,6.22697724 6.1030278,6.28959614 6.1030278,6.38344442 L6.1030278,13.5777315 C6.1030278,13.6715797 6.04168747,13.765428 6.01109574,13.7966574 C5.4595034,14.1720505 5.12252378,14.7037506 5.03059173,15.3919179 L5,15.4231473 L5,15.9862369 L5.09193206,16.3302405 C5.33697962,17.2373337 6.07243607,17.8630423 6.99159975,17.9881199 C7.81883138,18.0819682 8.70740334,17.6127268 9.1364719,16.8307113 C9.56538357,16.0174663 9.47345152,15.0165248 8.92201606,14.2971281 C8.89126745,14.2345092 8.86067573,14.2032799 8.7993354,14.1720505 C9.22840395,13.6403504 9.77983941,13.4526538 10.3927721,13.4212643 C10.9749561,13.4212643 11.5569833,13.3588055 12.1085757,13.171109 C13.3035355,12.7332571 14.0695837,11.8886227 14.529244,10.6999846 C14.7742915,10.0432068 14.8969722,9.38626891 14.8969722,8.66687224 C14.8969722,8.60425334 14.9275639,8.51040506 14.9887474,8.47917569 C15.5403397,8.10378259 15.8774762,7.57208246 15.9692514,6.88391516 C15.9692514,6.85268579 16,6.85268579 16,6.85268579 L16,6.28959614 L15.9080679,5.91420304 L15.9080679,5.91420304 M7.20605559,16.8621008 C6.5932798,16.8621008 6.1030278,16.3302405 6.1030278,15.7046921 C6.1030278,15.0791437 6.5932798,14.578673 7.20605559,14.578673 C7.81883138,14.578673 8.30908339,15.0791437 8.30908339,15.7360816 C8.27849166,16.36163 7.78823966,16.8621008 7.20605559,16.8621008 L7.20605559,16.8621008 L7.20605559,16.8621008 M13.7937875,7.69716011 C13.1810117,7.69716011 12.6907597,7.19668936 12.6907597,6.57114096 C12.6907597,5.94559257 13.1810117,5.41373229 13.7937875,5.41373229 C14.4065633,5.41373229 14.8969722,5.94559257 14.8969722,6.53991159 C14.8969722,7.19668936 14.4065633,7.69716011 13.7937875,7.69716011 L13.7937875,7.69716011 L13.7937875,7.69716011 M6.1030278,4.28771314 C6.1030278,3.66216474 6.5932798,3.13046462 7.17546387,3.13046462 C7.78823966,3.13046462 8.27849166,3.63093537 8.30908339,4.25648377 C8.30908339,4.91326154 7.81883138,5.41373229 7.20605559,5.41373229 C6.5932798,5.41373229 6.1030278,4.91326154 6.1030278,4.28771314 L6.1030278,4.28771314 L6.1030278,4.28771314" id="Shape"></path>
            </g>
        </g>
    </g>
</svg>

<svg xmlns="http://www.w3.org/2000/svg" viewBox="0 0 20 20">
    <path fill="#000" fill-rule="evenodd" d="M15.908 5.914a2.196 2.196 0 0 0-2.083-1.626 2.148 2.148 0 0 0-2.115 1.564c-.306.97.03 2.002.827 2.565.123.093.184.156.154.312-.03.282-.03.563-.123.845a2.008 2.008 0 0 1-1.96 1.564c-.705 0-1.41.094-2.054.375l-.245.125V6.415c0-.125.03-.188.123-.25a2.356 2.356 0 0 0 .858-2.628 2.22 2.22 0 0 0-2.237-1.533A2.262 2.262 0 0 0 5.03 3.85c0 .062-.031.094-.031.125v.594l.092.344c.153.532.46.939.889 1.252.091.062.122.125.122.218v7.195a.361.361 0 0 1-.092.219 2.208 2.208 0 0 0-.98 1.595L5 15.423v.563l.092.344c.245.907.98 1.533 1.9 1.658a2.242 2.242 0 0 0 2.144-1.157 2.373 2.373 0 0 0-.214-2.534.242.242 0 0 0-.123-.125c.43-.532.98-.72 1.594-.75.582 0 1.164-.063 1.716-.25 1.195-.439 1.96-1.283 2.42-2.472a5.687 5.687 0 0 0 .368-2.033c0-.063.03-.157.092-.188.551-.375.888-.907.98-1.595 0-.031.031-.031.031-.031V6.29l-.092-.376M7.206 16.862a1.138 1.138 0 0 1-1.103-1.157c0-.626.49-1.126 1.103-1.126s1.103.5 1.103 1.157c-.03.626-.52 1.126-1.103 1.126m6.588-9.165a1.11 1.11 0 0 1-1.103-1.126c0-.625.49-1.157 1.103-1.157a1.13 1.13 0 0 1 1.103 1.126c0 .657-.49 1.157-1.103 1.157m-7.691-3.41c0-.625.49-1.157 1.072-1.157.613 0 1.103.5 1.134 1.126 0 .657-.49 1.158-1.103 1.158a1.11 1.11 0 0 1-1.103-1.126"/>
</svg>
